X: 1
T: Trip to Windsor
C: Dan R. MacDonald
S: Barbara McOwen, D.Hinds
R: reel
Z: 2016 John Chambers <jc:trillian.mit.edu>
M: C|
L: 1/8
K: A
|: E |\
"A"AAA2 "A7"Ace=g | "D"fff^g "E7"fefg |\
"A"agfe "F#m"fgaf | "Bm7"ecBc "E7"AFEF |\
"A"AAA2 "A7"Ace=g |
"D"f2f^g "E7"fefg |\
"A"agfe "D"fgaf | "E7"ecBd "A"cAA :: c |\
"A"efec efae | "A"f{g}aec "E7"BAcB |
"A"AFEC "F#m"EFAE | "Bm7"F{G}AEC "E7"B,A,CB, |\
"A"A,2CE FECE | "A"AEcB Aceg |\
"D"agfe "Bm7"fgaf | "E7"ecBd "A"cAA :|
